<?xml version="1.0" encoding="UTF-8"?>
<map version="1.4" tiledversion="1.4.2" orientation="orthogonal" renderorder="right-down" width="17" height="23" tilewidth="16" tileheight="16" infinite="0" nextlayerid="12" nextobjectid="1">
 <tileset firstgid="1" name="FE8 - Mountainous - 6c006d6e" tilewidth="16" tileheight="16" tilecount="1024" columns="32">
  <image source="6c006d6e.png" trans="ffffff" width="512" height="512"/>
 </tileset>
 <layer id="1" name="Tile Layer 1" width="17" height="23">
  <properties>
   <property name="Anims1" value="0x05"/>
   <property name="Anims2" value="0"/>
   <property name="ChapterID" value="HubC_4_Cutscene"/>
   <property name="Main" value=""/>
   <property name="MapChangesID" value="HubC_4_CutsceneMapChangesID"/>
   <property name="MapID" value="HubC_4_CutsceneMapID"/>
   <property name="ObjectType1" value="0x6c"/>
   <property name="PaletteID" value="0x6d"/>
   <property name="TileConfig" value="0x6e"/>
  </properties>
  <data encoding="csv">
472,472,214,246,847,1005,974,942,941,942,941,941,1005,851,245,440,440,
440,441,214,472,246,281,1005,974,973,974,973,1005,281,245,472,309,310,
472,472,214,440,472,246,379,807,279,807,379,379,245,214,440,341,342,
214,440,440,214,843,776,849,778,34,777,849,776,842,440,441,440,440,
472,441,441,441,807,975,881,975,912,912,881,975,807,214,472,441,441,
309,310,472,441,807,943,912,1007,1007,1007,912,1007,807,441,441,472,440,
341,342,441,214,807,943,1007,901,663,902,943,1007,807,441,214,214,441,
441,440,472,440,807,907,1007,843,823,842,943,907,807,440,440,472,472,
472,472,440,472,807,943,1007,933,695,934,943,1007,807,214,472,441,472,
214,441,441,214,807,943,940,912,912,912,940,1007,807,441,472,472,441,
472,214,441,214,807,943,972,1007,1007,1007,972,1007,807,440,441,441,214,
441,214,472,278,777,775,906,965,966,967,906,776,778,277,214,472,440,
441,214,246,213,872,872,807,965,966,967,807,872,872,213,245,472,214,
214,441,214,246,872,872,807,975,912,912,807,872,872,245,214,440,440,
440,214,441,440,379,379,807,943,940,1007,807,379,379,440,440,309,310,
214,214,472,440,440,246,807,943,972,1007,807,245,440,214,472,341,342,
440,440,843,775,776,775,778,943,1007,1007,777,775,776,776,842,214,440,
214,472,807,975,940,912,912,266,267,268,912,912,940,912,807,214,472,
472,440,807,943,972,1007,1007,298,299,300,1007,1007,972,1007,807,441,472,
472,214,807,943,1007,843,775,775,776,775,776,842,943,1007,807,440,440,
472,214,807,943,1007,807,871,872,872,872,872,807,943,1007,807,472,214,
309,310,906,965,967,906,379,379,379,379,379,906,965,967,906,214,440,
341,342,970,965,967,970,440,245,440,246,440,970,965,967,970,472,214
</data>
 </layer>
 <layer id="10" name="BlockingChamber" width="17" height="23" visible="0">
  <data encoding="csv">
0,0,0,0,0,0,0,0,0,0,0,0,0,0,0,0,0,
0,0,0,0,0,0,0,0,0,0,0,0,0,0,0,0,0,
0,0,0,0,0,0,0,0,0,0,0,0,0,0,0,0,0,
0,0,0,0,0,0,0,0,0,0,0,0,0,0,0,0,0,
0,0,0,0,0,0,0,0,0,0,0,0,0,0,0,0,0,
0,0,0,0,0,0,0,0,0,0,0,0,0,0,0,0,0,
0,0,0,0,0,0,0,0,0,0,0,0,0,0,0,0,0,
0,0,0,0,0,0,0,0,0,0,0,0,0,0,0,0,0,
0,0,0,0,0,0,0,0,0,0,0,0,0,0,0,0,0,
0,0,0,0,0,0,0,0,0,0,0,0,0,0,0,0,0,
0,0,0,0,0,0,0,0,0,0,0,0,0,0,0,0,0,
0,0,0,0,0,0,0,908,908,908,0,0,0,0,0,0,0,
0,0,0,0,0,0,0,0,0,0,0,0,0,0,0,0,0,
0,0,0,0,0,0,0,0,0,0,0,0,0,0,0,0,0,
0,0,0,0,0,0,0,0,0,0,0,0,0,0,0,0,0,
0,0,0,0,0,0,0,0,0,0,0,0,0,0,0,0,0,
0,0,0,0,0,0,0,0,0,0,0,0,0,0,0,0,0,
0,0,0,0,0,0,0,0,0,0,0,0,0,0,0,0,0,
0,0,0,0,0,0,0,0,0,0,0,0,0,0,0,0,0,
0,0,0,0,0,0,0,0,0,0,0,0,0,0,0,0,0,
0,0,0,0,0,0,0,0,0,0,0,0,0,0,0,0,0,
0,0,0,0,0,0,0,0,0,0,0,0,0,0,0,0,0,
0,0,0,0,0,0,0,0,0,0,0,0,0,0,0,0,0
</data>
 </layer>
 <layer id="11" name="ChestOpen" width="17" height="23" visible="0">
  <data encoding="csv">
0,0,0,0,0,0,0,0,0,0,0,0,0,0,0,0,0,
0,0,0,0,0,0,0,0,0,0,0,0,0,0,0,0,0,
0,0,0,0,0,0,0,0,0,0,0,0,0,0,0,0,0,
0,0,0,0,0,0,0,0,2,0,0,0,0,0,0,0,0,
0,0,0,0,0,0,0,0,0,0,0,0,0,0,0,0,0,
0,0,0,0,0,0,0,0,0,0,0,0,0,0,0,0,0,
0,0,0,0,0,0,0,0,0,0,0,0,0,0,0,0,0,
0,0,0,0,0,0,0,0,0,0,0,0,0,0,0,0,0,
0,0,0,0,0,0,0,0,0,0,0,0,0,0,0,0,0,
0,0,0,0,0,0,0,0,0,0,0,0,0,0,0,0,0,
0,0,0,0,0,0,0,0,0,0,0,0,0,0,0,0,0,
0,0,0,0,0,0,0,0,0,0,0,0,0,0,0,0,0,
0,0,0,0,0,0,0,0,0,0,0,0,0,0,0,0,0,
0,0,0,0,0,0,0,0,0,0,0,0,0,0,0,0,0,
0,0,0,0,0,0,0,0,0,0,0,0,0,0,0,0,0,
0,0,0,0,0,0,0,0,0,0,0,0,0,0,0,0,0,
0,0,0,0,0,0,0,0,0,0,0,0,0,0,0,0,0,
0,0,0,0,0,0,0,0,0,0,0,0,0,0,0,0,0,
0,0,0,0,0,0,0,0,0,0,0,0,0,0,0,0,0,
0,0,0,0,0,0,0,0,0,0,0,0,0,0,0,0,0,
0,0,0,0,0,0,0,0,0,0,0,0,0,0,0,0,0,
0,0,0,0,0,0,0,0,0,0,0,0,0,0,0,0,0,
0,0,0,0,0,0,0,0,0,0,0,0,0,0,0,0,0
</data>
 </layer>
</map>
