<?xml version="1.0" encoding="UTF-8"?>
<map version="1.10" tiledversion="1.10.0" orientation="orthogonal" renderorder="right-down" width="15" height="14" tilewidth="16" tileheight="16" infinite="0" nextlayerid="11" nextobjectid="1">
 <tileset firstgid="1" name="FlasubanVillageNight" tilewidth="16" tileheight="16" tilecount="1024" columns="32">
  <image source="Tilesets/FlasubanVillageNight.png" width="512" height="512"/>
 </tileset>
 <layer id="1" name="C3Intro" width="15" height="14" opacity="0.9">
  <properties>
   <property name="Anims1" value="0"/>
   <property name="Anims2" value="0"/>
   <property name="ChapterID" value="CutsceneHubC_3_A"/>
   <property name="Main" value=""/>
   <property name="MapChangesID" value="CutsceneC_3_AMapChangesID"/>
   <property name="MapID" value="CutsceneC_3_AMapID"/>
   <property name="ObjectType" value="FlasubanVillageSkyObjectID"/>
   <property name="PaletteID" value="FlasubanVillageOurplePaletteID"/>
   <property name="TileConfig" value="FlasubanVillageSkyConfigID"/>
  </properties>
  <data>
   <tile gid="124"/>
   <tile gid="124"/>
   <tile gid="124"/>
   <tile gid="124"/>
   <tile gid="124"/>
   <tile gid="124"/>
   <tile gid="124"/>
   <tile gid="124"/>
   <tile gid="124"/>
   <tile gid="124"/>
   <tile gid="124"/>
   <tile gid="124"/>
   <tile gid="124"/>
   <tile gid="124"/>
   <tile gid="124"/>
   <tile gid="124"/>
   <tile gid="124"/>
   <tile gid="124"/>
   <tile gid="124"/>
   <tile gid="124"/>
   <tile gid="124"/>
   <tile gid="124"/>
   <tile gid="124"/>
   <tile gid="124"/>
   <tile gid="124"/>
   <tile gid="124"/>
   <tile gid="124"/>
   <tile gid="124"/>
   <tile gid="124"/>
   <tile gid="124"/>
   <tile gid="1"/>
   <tile gid="1"/>
   <tile gid="1"/>
   <tile gid="1"/>
   <tile gid="1"/>
   <tile gid="1"/>
   <tile gid="725"/>
   <tile gid="133"/>
   <tile gid="535"/>
   <tile gid="568"/>
   <tile gid="363"/>
   <tile gid="728"/>
   <tile gid="1"/>
   <tile gid="1"/>
   <tile gid="1"/>
   <tile gid="1"/>
   <tile gid="1"/>
   <tile gid="1"/>
   <tile gid="1"/>
   <tile gid="1"/>
   <tile gid="789"/>
   <tile gid="197"/>
   <tile gid="272"/>
   <tile gid="601"/>
   <tile gid="272"/>
   <tile gid="493"/>
   <tile gid="194"/>
   <tile gid="608"/>
   <tile gid="726"/>
   <tile gid="1"/>
   <tile gid="1"/>
   <tile gid="1"/>
   <tile gid="1"/>
   <tile gid="1"/>
   <tile gid="725"/>
   <tile gid="237"/>
   <tile gid="272"/>
   <tile gid="272"/>
   <tile gid="569"/>
   <tile gid="232"/>
   <tile gid="194"/>
   <tile gid="548"/>
   <tile gid="472"/>
   <tile gid="194"/>
   <tile gid="728"/>
   <tile gid="1"/>
   <tile gid="1"/>
   <tile gid="1"/>
   <tile gid="727"/>
   <tile gid="194"/>
   <tile gid="171"/>
   <tile gid="394"/>
   <tile gid="599"/>
   <tile gid="568"/>
   <tile gid="172"/>
   <tile gid="194"/>
   <tile gid="194"/>
   <tile gid="194"/>
   <tile gid="469"/>
   <tile gid="203"/>
   <tile gid="1"/>
   <tile gid="1"/>
   <tile gid="725"/>
   <tile gid="323"/>
   <tile gid="471"/>
   <tile gid="578"/>
   <tile gid="194"/>
   <tile gid="297"/>
   <tile gid="166"/>
   <tile gid="194"/>
   <tile gid="324"/>
   <tile gid="194"/>
   <tile gid="504"/>
   <tile gid="164"/>
   <tile gid="297"/>
   <tile gid="1"/>
   <tile gid="793"/>
   <tile gid="417"/>
   <tile gid="387"/>
   <tile gid="503"/>
   <tile gid="610"/>
   <tile gid="194"/>
   <tile gid="173"/>
   <tile gid="345"/>
   <tile gid="41"/>
   <tile gid="388"/>
   <tile gid="504"/>
   <tile gid="610"/>
   <tile gid="194"/>
   <tile gid="165"/>
   <tile gid="1"/>
   <tile gid="727"/>
   <tile gid="533"/>
   <tile gid="437"/>
   <tile gid="194"/>
   <tile gid="533"/>
   <tile gid="420"/>
   <tile gid="194"/>
   <tile gid="39"/>
   <tile gid="40"/>
   <tile gid="194"/>
   <tile gid="548"/>
   <tile gid="194"/>
   <tile gid="764"/>
   <tile gid="757"/>
   <tile gid="725"/>
   <tile gid="499"/>
   <tile gid="500"/>
   <tile gid="531"/>
   <tile gid="499"/>
   <tile gid="500"/>
   <tile gid="499"/>
   <tile gid="322"/>
   <tile gid="194"/>
   <tile gid="194"/>
   <tile gid="435"/>
   <tile gid="534"/>
   <tile gid="578"/>
   <tile gid="796"/>
   <tile gid="727"/>
   <tile gid="194"/>
   <tile gid="563"/>
   <tile gid="531"/>
   <tile gid="564"/>
   <tile gid="563"/>
   <tile gid="532"/>
   <tile gid="564"/>
   <tile gid="386"/>
   <tile gid="437"/>
   <tile gid="500"/>
   <tile gid="564"/>
   <tile gid="472"/>
   <tile gid="610"/>
   <tile gid="730"/>
   <tile gid="757"/>
   <tile gid="757"/>
   <tile gid="385"/>
   <tile gid="563"/>
   <tile gid="499"/>
   <tile gid="500"/>
   <tile gid="532"/>
   <tile gid="499"/>
   <tile gid="565"/>
   <tile gid="406"/>
   <tile gid="598"/>
   <tile gid="499"/>
   <tile gid="500"/>
   <tile gid="499"/>
   <tile gid="500"/>
   <tile gid="915"/>
   <tile gid="1"/>
   <tile gid="757"/>
   <tile gid="672"/>
   <tile gid="857"/>
   <tile gid="858"/>
   <tile gid="532"/>
   <tile gid="532"/>
   <tile gid="532"/>
   <tile gid="499"/>
   <tile gid="500"/>
   <tile gid="858"/>
   <tile gid="858"/>
   <tile gid="857"/>
   <tile gid="858"/>
   <tile gid="1"/>
   <tile gid="1"/>
   <tile gid="1"/>
   <tile gid="859"/>
   <tile gid="1"/>
   <tile gid="1"/>
   <tile gid="857"/>
   <tile gid="532"/>
   <tile gid="532"/>
   <tile gid="532"/>
   <tile gid="858"/>
   <tile gid="1"/>
   <tile gid="1"/>
   <tile gid="1"/>
   <tile gid="1"/>
   <tile gid="1"/>
  </data>
 </layer>
 <layer id="7" name="C3OutroPrison" width="15" height="14" visible="0">
  <data>
   <tile gid="853"/>
   <tile gid="853"/>
   <tile gid="727"/>
   <tile gid="675"/>
   <tile gid="644"/>
   <tile gid="644"/>
   <tile gid="677"/>
   <tile gid="644"/>
   <tile gid="644"/>
   <tile gid="677"/>
   <tile gid="644"/>
   <tile gid="644"/>
   <tile gid="676"/>
   <tile gid="877"/>
   <tile gid="415"/>
   <tile gid="853"/>
   <tile gid="853"/>
   <tile gid="757"/>
   <tile gid="679"/>
   <tile gid="344"/>
   <tile gid="846"/>
   <tile gid="710"/>
   <tile gid="341"/>
   <tile gid="344"/>
   <tile gid="711"/>
   <tile gid="785"/>
   <tile gid="341"/>
   <tile gid="711"/>
   <tile gid="877"/>
   <tile gid="776"/>
   <tile gid="853"/>
   <tile gid="853"/>
   <tile gid="725"/>
   <tile gid="679"/>
   <tile gid="845"/>
   <tile gid="786"/>
   <tile gid="711"/>
   <tile gid="845"/>
   <tile gid="846"/>
   <tile gid="710"/>
   <tile gid="817"/>
   <tile gid="846"/>
   <tile gid="711"/>
   <tile gid="877"/>
   <tile gid="846"/>
   <tile gid="853"/>
   <tile gid="793"/>
   <tile gid="577"/>
   <tile gid="675"/>
   <tile gid="775"/>
   <tile gid="851"/>
   <tile gid="820"/>
   <tile gid="775"/>
   <tile gid="851"/>
   <tile gid="820"/>
   <tile gid="775"/>
   <tile gid="851"/>
   <tile gid="711"/>
   <tile gid="877"/>
   <tile gid="349"/>
   <tile gid="726"/>
   <tile gid="725"/>
   <tile gid="609"/>
   <tile gid="679"/>
   <tile gid="845"/>
   <tile gid="846"/>
   <tile gid="345"/>
   <tile gid="845"/>
   <tile gid="846"/>
   <tile gid="345"/>
   <tile gid="845"/>
   <tile gid="846"/>
   <tile gid="345"/>
   <tile gid="877"/>
   <tile gid="776"/>
   <tile gid="420"/>
   <tile gid="257"/>
   <tile gid="97"/>
   <tile gid="710"/>
   <tile gid="877"/>
   <tile gid="349"/>
   <tile gid="846"/>
   <tile gid="415"/>
   <tile gid="349"/>
   <tile gid="383"/>
   <tile gid="415"/>
   <tile gid="415"/>
   <tile gid="383"/>
   <tile gid="415"/>
   <tile gid="846"/>
   <tile gid="8"/>
   <tile gid="257"/>
   <tile gid="257"/>
   <tile gid="679"/>
   <tile gid="877"/>
   <tile gid="415"/>
   <tile gid="415"/>
   <tile gid="349"/>
   <tile gid="415"/>
   <tile gid="415"/>
   <tile gid="415"/>
   <tile gid="415"/>
   <tile gid="349"/>
   <tile gid="415"/>
   <tile gid="349"/>
   <tile gid="40"/>
   <tile gid="257"/>
   <tile gid="322"/>
   <tile gid="679"/>
   <tile gid="245"/>
   <tile gid="247"/>
   <tile gid="675"/>
   <tile gid="644"/>
   <tile gid="644"/>
   <tile gid="644"/>
   <tile gid="644"/>
   <tile gid="644"/>
   <tile gid="644"/>
   <tile gid="644"/>
   <tile gid="644"/>
   <tile gid="257"/>
   <tile gid="417"/>
   <tile gid="386"/>
   <tile gid="679"/>
   <tile gid="277"/>
   <tile gid="279"/>
   <tile gid="711"/>
   <tile gid="651"/>
   <tile gid="651"/>
   <tile gid="651"/>
   <tile gid="651"/>
   <tile gid="651"/>
   <tile gid="651"/>
   <tile gid="651"/>
   <tile gid="651"/>
   <tile gid="420"/>
   <tile gid="503"/>
   <tile gid="500"/>
   <tile gid="679"/>
   <tile gid="309"/>
   <tile gid="311"/>
   <tile gid="679"/>
   <tile gid="815"/>
   <tile gid="716"/>
   <tile gid="846"/>
   <tile gid="846"/>
   <tile gid="846"/>
   <tile gid="748"/>
   <tile gid="65"/>
   <tile gid="846"/>
   <tile gid="49"/>
   <tile gid="49"/>
   <tile gid="49"/>
   <tile gid="49"/>
   <tile gid="49"/>
   <tile gid="49"/>
   <tile gid="49"/>
   <tile gid="49"/>
   <tile gid="49"/>
   <tile gid="49"/>
   <tile gid="49"/>
   <tile gid="49"/>
   <tile gid="49"/>
   <tile gid="49"/>
   <tile gid="49"/>
   <tile/>
   <tile/>
   <tile/>
   <tile/>
   <tile/>
   <tile/>
   <tile/>
   <tile/>
   <tile/>
   <tile/>
   <tile/>
   <tile/>
   <tile/>
   <tile/>
   <tile/>
   <tile/>
   <tile/>
   <tile/>
   <tile/>
   <tile/>
   <tile/>
   <tile/>
   <tile/>
   <tile/>
   <tile/>
   <tile/>
   <tile/>
   <tile/>
   <tile/>
   <tile/>
   <tile/>
   <tile/>
   <tile/>
   <tile/>
   <tile/>
   <tile/>
   <tile/>
   <tile/>
   <tile/>
   <tile/>
   <tile/>
   <tile/>
   <tile/>
   <tile/>
   <tile/>
  </data>
 </layer>
 <layer id="8" name="Door1" width="15" height="14" visible="0">
  <data>
   <tile/>
   <tile/>
   <tile/>
   <tile/>
   <tile/>
   <tile/>
   <tile/>
   <tile/>
   <tile/>
   <tile/>
   <tile/>
   <tile/>
   <tile/>
   <tile/>
   <tile/>
   <tile/>
   <tile/>
   <tile/>
   <tile/>
   <tile/>
   <tile/>
   <tile/>
   <tile/>
   <tile/>
   <tile/>
   <tile/>
   <tile/>
   <tile/>
   <tile/>
   <tile/>
   <tile/>
   <tile/>
   <tile/>
   <tile/>
   <tile/>
   <tile/>
   <tile/>
   <tile/>
   <tile/>
   <tile/>
   <tile/>
   <tile/>
   <tile/>
   <tile/>
   <tile/>
   <tile/>
   <tile/>
   <tile/>
   <tile/>
   <tile/>
   <tile/>
   <tile/>
   <tile/>
   <tile gid="348"/>
   <tile/>
   <tile/>
   <tile/>
   <tile/>
   <tile/>
   <tile/>
   <tile/>
   <tile/>
   <tile/>
   <tile/>
   <tile/>
   <tile/>
   <tile/>
   <tile/>
   <tile gid="415"/>
   <tile/>
   <tile/>
   <tile/>
   <tile/>
   <tile/>
   <tile/>
   <tile/>
   <tile/>
   <tile/>
   <tile/>
   <tile/>
   <tile/>
   <tile/>
   <tile/>
   <tile/>
   <tile/>
   <tile/>
   <tile/>
   <tile/>
   <tile/>
   <tile/>
   <tile/>
   <tile/>
   <tile/>
   <tile/>
   <tile/>
   <tile/>
   <tile/>
   <tile/>
   <tile/>
   <tile/>
   <tile/>
   <tile/>
   <tile/>
   <tile/>
   <tile/>
   <tile/>
   <tile/>
   <tile/>
   <tile/>
   <tile/>
   <tile/>
   <tile/>
   <tile/>
   <tile/>
   <tile/>
   <tile/>
   <tile/>
   <tile/>
   <tile/>
   <tile/>
   <tile/>
   <tile/>
   <tile/>
   <tile/>
   <tile/>
   <tile/>
   <tile/>
   <tile/>
   <tile/>
   <tile/>
   <tile/>
   <tile/>
   <tile/>
   <tile/>
   <tile/>
   <tile/>
   <tile/>
   <tile/>
   <tile/>
   <tile/>
   <tile/>
   <tile/>
   <tile/>
   <tile/>
   <tile/>
   <tile/>
   <tile/>
   <tile/>
   <tile/>
   <tile/>
   <tile/>
   <tile/>
   <tile/>
   <tile/>
   <tile/>
   <tile/>
   <tile/>
   <tile/>
   <tile/>
   <tile/>
   <tile/>
   <tile/>
   <tile/>
   <tile/>
   <tile/>
   <tile/>
   <tile/>
   <tile/>
   <tile/>
   <tile/>
   <tile/>
   <tile/>
   <tile/>
   <tile/>
   <tile/>
   <tile/>
   <tile/>
   <tile/>
   <tile/>
   <tile/>
   <tile/>
   <tile/>
   <tile/>
   <tile/>
   <tile/>
   <tile/>
   <tile/>
   <tile/>
   <tile/>
   <tile/>
   <tile/>
   <tile/>
   <tile/>
   <tile/>
   <tile/>
   <tile/>
   <tile/>
   <tile/>
   <tile/>
   <tile/>
   <tile/>
   <tile/>
   <tile/>
   <tile/>
   <tile/>
   <tile/>
   <tile/>
   <tile/>
   <tile/>
   <tile/>
  </data>
 </layer>
 <layer id="9" name="Door2" width="15" height="14" visible="0">
  <data>
   <tile/>
   <tile/>
   <tile/>
   <tile/>
   <tile/>
   <tile/>
   <tile/>
   <tile/>
   <tile/>
   <tile/>
   <tile/>
   <tile/>
   <tile/>
   <tile/>
   <tile/>
   <tile/>
   <tile/>
   <tile/>
   <tile/>
   <tile/>
   <tile/>
   <tile/>
   <tile/>
   <tile/>
   <tile/>
   <tile/>
   <tile/>
   <tile/>
   <tile/>
   <tile/>
   <tile/>
   <tile/>
   <tile/>
   <tile/>
   <tile/>
   <tile/>
   <tile/>
   <tile/>
   <tile/>
   <tile/>
   <tile/>
   <tile/>
   <tile/>
   <tile/>
   <tile/>
   <tile/>
   <tile/>
   <tile/>
   <tile/>
   <tile/>
   <tile/>
   <tile/>
   <tile/>
   <tile/>
   <tile/>
   <tile/>
   <tile gid="348"/>
   <tile/>
   <tile/>
   <tile/>
   <tile/>
   <tile/>
   <tile/>
   <tile/>
   <tile/>
   <tile/>
   <tile/>
   <tile/>
   <tile/>
   <tile/>
   <tile/>
   <tile gid="415"/>
   <tile/>
   <tile/>
   <tile/>
   <tile/>
   <tile/>
   <tile/>
   <tile/>
   <tile/>
   <tile/>
   <tile/>
   <tile/>
   <tile/>
   <tile/>
   <tile/>
   <tile/>
   <tile/>
   <tile/>
   <tile/>
   <tile/>
   <tile/>
   <tile/>
   <tile/>
   <tile/>
   <tile/>
   <tile/>
   <tile/>
   <tile/>
   <tile/>
   <tile/>
   <tile/>
   <tile/>
   <tile/>
   <tile/>
   <tile/>
   <tile/>
   <tile/>
   <tile/>
   <tile/>
   <tile/>
   <tile/>
   <tile/>
   <tile/>
   <tile/>
   <tile/>
   <tile/>
   <tile/>
   <tile/>
   <tile/>
   <tile/>
   <tile/>
   <tile/>
   <tile/>
   <tile/>
   <tile/>
   <tile/>
   <tile/>
   <tile/>
   <tile/>
   <tile/>
   <tile/>
   <tile/>
   <tile/>
   <tile/>
   <tile/>
   <tile/>
   <tile/>
   <tile/>
   <tile/>
   <tile/>
   <tile/>
   <tile/>
   <tile/>
   <tile/>
   <tile/>
   <tile/>
   <tile/>
   <tile/>
   <tile/>
   <tile/>
   <tile/>
   <tile/>
   <tile/>
   <tile/>
   <tile/>
   <tile/>
   <tile/>
   <tile/>
   <tile/>
   <tile/>
   <tile/>
   <tile/>
   <tile/>
   <tile/>
   <tile/>
   <tile/>
   <tile/>
   <tile/>
   <tile/>
   <tile/>
   <tile/>
   <tile/>
   <tile/>
   <tile/>
   <tile/>
   <tile/>
   <tile/>
   <tile/>
   <tile/>
   <tile/>
   <tile/>
   <tile/>
   <tile/>
   <tile/>
   <tile/>
   <tile/>
   <tile/>
   <tile/>
   <tile/>
   <tile/>
   <tile/>
   <tile/>
   <tile/>
   <tile/>
   <tile/>
   <tile/>
   <tile/>
   <tile/>
   <tile/>
   <tile/>
   <tile/>
   <tile/>
   <tile/>
   <tile/>
   <tile/>
   <tile/>
   <tile/>
   <tile/>
   <tile/>
  </data>
 </layer>
 <layer id="10" name="Barrel1" width="15" height="14" visible="0">
  <data>
   <tile/>
   <tile/>
   <tile/>
   <tile/>
   <tile/>
   <tile/>
   <tile/>
   <tile/>
   <tile/>
   <tile/>
   <tile/>
   <tile/>
   <tile/>
   <tile/>
   <tile/>
   <tile/>
   <tile/>
   <tile/>
   <tile/>
   <tile/>
   <tile/>
   <tile/>
   <tile/>
   <tile/>
   <tile/>
   <tile gid="845"/>
   <tile/>
   <tile/>
   <tile/>
   <tile/>
   <tile/>
   <tile/>
   <tile/>
   <tile/>
   <tile/>
   <tile/>
   <tile/>
   <tile/>
   <tile/>
   <tile/>
   <tile gid="877"/>
   <tile/>
   <tile/>
   <tile/>
   <tile/>
   <tile/>
   <tile/>
   <tile/>
   <tile/>
   <tile/>
   <tile/>
   <tile/>
   <tile/>
   <tile/>
   <tile/>
   <tile/>
   <tile/>
   <tile/>
   <tile/>
   <tile/>
   <tile/>
   <tile/>
   <tile/>
   <tile/>
   <tile/>
   <tile/>
   <tile/>
   <tile/>
   <tile/>
   <tile/>
   <tile/>
   <tile/>
   <tile/>
   <tile/>
   <tile/>
   <tile/>
   <tile/>
   <tile/>
   <tile/>
   <tile/>
   <tile/>
   <tile/>
   <tile/>
   <tile/>
   <tile/>
   <tile/>
   <tile/>
   <tile/>
   <tile/>
   <tile/>
   <tile/>
   <tile/>
   <tile/>
   <tile/>
   <tile/>
   <tile/>
   <tile/>
   <tile/>
   <tile/>
   <tile/>
   <tile/>
   <tile/>
   <tile/>
   <tile/>
   <tile/>
   <tile/>
   <tile/>
   <tile/>
   <tile/>
   <tile/>
   <tile/>
   <tile/>
   <tile/>
   <tile/>
   <tile/>
   <tile/>
   <tile/>
   <tile/>
   <tile/>
   <tile/>
   <tile/>
   <tile/>
   <tile/>
   <tile/>
   <tile/>
   <tile/>
   <tile/>
   <tile/>
   <tile/>
   <tile/>
   <tile/>
   <tile/>
   <tile/>
   <tile/>
   <tile/>
   <tile/>
   <tile/>
   <tile/>
   <tile/>
   <tile/>
   <tile/>
   <tile/>
   <tile/>
   <tile/>
   <tile/>
   <tile/>
   <tile/>
   <tile/>
   <tile/>
   <tile/>
   <tile/>
   <tile/>
   <tile/>
   <tile/>
   <tile/>
   <tile/>
   <tile/>
   <tile/>
   <tile/>
   <tile/>
   <tile/>
   <tile/>
   <tile/>
   <tile/>
   <tile/>
   <tile/>
   <tile/>
   <tile/>
   <tile/>
   <tile/>
   <tile/>
   <tile/>
   <tile/>
   <tile/>
   <tile/>
   <tile/>
   <tile/>
   <tile/>
   <tile/>
   <tile/>
   <tile/>
   <tile/>
   <tile/>
   <tile/>
   <tile/>
   <tile/>
   <tile/>
   <tile/>
   <tile/>
   <tile/>
   <tile/>
   <tile/>
   <tile/>
   <tile/>
   <tile/>
   <tile/>
   <tile/>
   <tile/>
   <tile/>
   <tile/>
   <tile/>
   <tile/>
   <tile/>
   <tile/>
   <tile/>
   <tile/>
   <tile/>
   <tile/>
   <tile/>
   <tile/>
  </data>
 </layer>
</map>
